src/cards/clubs_7.svg

<svg version="1.1" id="Layer_1" xmlns="http://www.w3.org/2000/svg" xmlns:xlink="http://www.w3.org/1999/xlink" x="0px" y="0px"
	 width="100%" viewBox="0 0 336 496" enable-background="new 0 0 336 496" xml:space="preserve">
<path fill="currentColor" opacity="1.000000" stroke="none" 
	d="
M106.310188,404.210388 
	C114.225754,397.489044 123.737305,397.658203 129.749268,404.371765 
	C135.319855,410.592499 134.696365,420.716064 128.390930,426.427216 
	C122.403343,431.850464 112.905212,431.656097 107.098038,425.975525 
	C106.156639,425.054596 105.278214,424.069275 103.692924,423.678009 
	C105.566910,425.758606 107.462624,427.820099 109.311035,429.923187 
	C116.577454,438.190918 114.119041,450.958801 104.456528,455.199219 
	C98.022812,458.022583 90.859604,456.470276 86.245644,451.252686 
	C81.747688,446.166321 81.112015,438.114258 85.104233,432.221558 
	C87.139465,429.217407 89.763290,426.612030 91.946175,423.504700 
	C88.415405,426.849945 84.831970,430.035980 79.668144,430.285034 
	C74.391052,430.539581 69.780167,429.132874 66.225838,425.068542 
	C61.250580,419.379395 61.190113,409.896149 66.217041,404.403259 
	C70.375916,399.858948 75.562477,398.482330 81.645203,399.621460 
	C87.478279,400.713867 90.460472,405.782440 95.143982,409.189453 
	C95.150360,401.624908 93.337540,395.293365 89.163658,389.571075 
	C86.495621,385.913269 87.422546,384.264191 92.041527,384.088257 
	C96.030869,383.936310 100.037727,383.935242 104.025085,384.120483 
	C108.654709,384.335541 109.544937,385.969147 106.790329,389.652924 
	C102.512131,395.374176 100.960220,401.805847 101.887131,409.822144 
	C103.277458,408.035217 104.667786,406.248291 106.310188,404.210388 
z"/>
<path fill="currentColor" opacity="1.000000" stroke="none" 
	d="
M225.810379,431.024475 
	C228.104492,428.403137 230.186584,426.085938 232.268677,423.768707 
	C221.262909,431.777069 213.056381,432.408630 206.643158,425.526764 
	C201.477173,419.983276 201.026688,410.554596 205.849243,404.856323 
	C209.828903,400.154053 214.922119,398.602356 221.082504,399.513885 
	C227.239822,400.424988 230.260925,405.726379 235.120514,409.047211 
	C235.147400,401.793335 233.568298,395.507385 229.414413,389.999329 
	C228.395569,388.648376 227.169922,387.218567 228.049438,385.496918 
	C228.946838,383.740265 230.914322,384.080933 232.536484,384.059021 
	C236.367615,384.007233 240.206955,383.916504 244.030289,384.102417 
	C248.624786,384.325775 249.544998,386.018219 246.806000,389.674561 
	C242.527267,395.386322 240.913300,401.775177 241.823273,409.632782 
	C243.270523,407.872559 244.573944,405.966003 246.189987,404.377502 
	C253.153091,397.532806 263.057190,397.404297 269.376068,403.970001 
	C275.210327,410.032135 274.938293,420.126556 268.780945,426.053131 
	C262.363800,432.229675 252.838623,431.755371 246.097992,424.891724 
	C245.522629,424.305847 245.133728,423.536896 244.658188,422.852997 
	C244.342606,423.131348 244.027039,423.409668 243.711456,423.688019 
	C245.588959,425.772827 247.486847,427.839691 249.340042,429.945892 
	C254.522552,435.835815 254.917984,444.986969 250.255478,450.641876 
	C245.029694,456.979950 235.433578,458.482452 229.128036,453.949921 
	C221.898376,448.753052 220.491577,439.737091 225.810379,431.024475 
z"/>
<path fill="currentColor" opacity="1.000000" stroke="none" 
	d="
M92.580254,94.873840 
	C89.040489,98.372307 85.893723,101.746124 80.853714,102.507820 
	C73.526024,103.615257 66.723656,100.346390 63.911175,94.000755 
	C60.863327,87.124069 62.871914,78.960594 68.663872,74.684402 
	C74.383095,70.461914 82.619102,70.672165 88.129913,75.251900 
	C89.396881,76.304810 90.490036,77.566864 92.242012,78.258690 
	C90.186058,75.919563 88.003242,73.678703 86.099915,71.221359 
	C81.810020,65.682785 81.283264,59.535278 84.429298,53.423290 
	C87.370003,47.710197 92.476501,45.364876 98.917435,45.640266 
	C105.019806,45.901188 109.524544,48.715038 111.944557,54.153332 
	C114.454063,59.792732 114.264610,65.521317 110.238701,70.611610 
	C108.182892,73.210945 105.925804,75.651070 103.965317,78.445335 
	C107.562263,75.302162 111.049194,72.052902 116.123146,71.725708 
	C121.188766,71.399040 125.691658,72.683464 129.291000,76.424812 
	C134.532623,81.873253 134.988419,91.089584 130.177460,97.020844 
	C126.143578,101.994049 120.866127,103.554222 114.570381,102.507996 
	C108.549583,101.507454 105.626114,96.043587 100.563782,92.780701 
	C100.963409,100.158806 102.406761,106.512993 106.633965,111.986816 
	C107.672096,113.331108 108.806831,114.795143 107.962120,116.509872 
	C107.068520,118.323875 105.090279,117.874214 103.485527,117.901451 
	C99.658432,117.966415 95.825005,118.030502 92.002281,117.883369 
	C87.424416,117.707169 86.449646,115.969872 89.155235,112.392563 
	C93.462570,106.697449 95.043030,100.267815 95.274391,93.326332 
	C93.876984,92.875076 93.601639,94.217857 92.580254,94.873840 
z"/>
<path fill="currentColor" opacity="1.000000" stroke="none" 
	d="
M100.483025,208.040283 
	C114.943298,212.455322 117.332069,223.997635 106.288895,238.279236 
	C111.116165,235.642181 115.179817,233.660385 119.988754,234.388565 
	C124.903473,235.132797 128.830551,237.277145 131.375214,241.587967 
	C135.249588,248.151398 133.844040,256.746094 128.199753,261.630798 
	C121.033310,267.832825 114.574669,266.386993 100.631424,255.273315 
	C101.040771,262.382416 102.153519,268.927277 106.573853,274.494415 
	C107.621994,275.814484 108.783287,277.208893 107.924911,278.989685 
	C106.992973,280.923157 105.023430,280.239288 103.465134,280.275360 
	C99.469856,280.367828 95.465736,280.412933 91.474480,280.249329 
	C87.539757,280.088043 86.630692,278.437378 89.022934,275.231415 
	C93.396515,269.370300 94.928322,262.731934 95.482079,254.516602 
	C93.133583,256.803589 91.429298,258.468842 89.718948,260.127808 
	C82.902611,266.739319 73.733627,267.152588 67.346039,261.138641 
	C61.344006,255.487717 60.819195,245.476089 66.207054,239.410324 
	C71.985985,232.904312 81.857635,232.556076 89.092621,238.603409 
	C89.595123,239.023407 90.095558,239.445892 91.068810,239.649521 
	C85.594238,234.116928 81.140831,228.228821 82.812050,219.882751 
	C84.299904,212.452362 91.197861,207.655319 100.483025,208.040283 
z"/>
<path fill="currentColor" opacity="1.000000" stroke="none" 
	d="
M185.442139,185.202209 
	C178.836166,184.101227 175.495270,178.890244 170.505554,174.659561 
	C171.043777,182.365311 172.255859,188.909271 176.585342,194.514465 
	C177.620804,195.855026 178.788116,197.224396 177.940033,199.008224 
	C177.011215,200.961868 175.045349,200.257080 173.486237,200.289749 
	C169.489578,200.373566 165.484695,200.418228 161.492325,200.254196 
	C157.539490,200.091782 156.592987,198.422256 159.016144,195.250977 
	C163.480911,189.407791 164.787552,182.703674 165.570450,174.465942 
	C163.150558,176.819153 161.454361,178.484070 159.741440,180.131607 
	C152.609177,186.991745 142.904526,187.116226 136.643494,180.433853 
	C131.008560,174.419724 131.122833,164.385635 136.891449,158.661758 
	C143.210159,152.392044 153.395889,152.855728 160.121414,159.681213 
	C160.760635,160.329941 161.050537,161.466919 162.704193,161.465897 
	C161.109634,158.450668 158.532135,156.610794 156.548065,154.291397 
	C151.009064,147.816238 151.174347,138.258362 156.893066,132.455887 
	C162.549698,126.716423 171.329559,126.243820 177.819717,131.329468 
	C184.217346,136.342590 185.459259,146.050995 180.525543,152.901001 
	C179.392838,154.473663 178.072372,155.911118 176.011353,158.415756 
	C181.193893,155.486816 185.291092,153.547745 190.218765,154.400482 
	C199.061752,155.930756 203.826996,161.981857 203.332550,171.440170 
	C202.934692,179.051147 196.505402,185.007172 188.362045,185.292847 
	C187.530869,185.322021 186.696747,185.266571 185.442139,185.202209 
z"/>
<path fill="currentColor" opacity="1.000000" stroke="none" 
	d="
M234.484756,263.385742 
	C234.880997,260.542389 235.193222,258.093536 235.672546,254.333954 
	C233.036057,256.897797 231.227219,258.695160 229.377167,260.449005 
	C222.590836,266.882324 213.244202,267.021210 207.020096,260.797974 
	C201.331558,255.110214 200.950699,245.392319 206.182999,239.437592 
	C211.792252,233.053894 221.653900,232.530350 228.680496,238.208771 
	C229.386337,238.779190 229.797806,239.905579 231.700897,239.549545 
	C225.884064,234.298859 221.253128,228.734116 222.740494,220.509964 
	C223.388046,216.929413 225.123917,213.973969 227.844772,211.601288 
	C233.852005,206.362778 242.784302,206.618423 248.772400,212.170776 
	C255.455444,218.367508 254.822830,227.112061 246.391495,238.105637 
	C251.128204,235.818085 255.121933,233.723938 259.890472,234.395889 
	C264.839447,235.093262 268.725586,237.299850 271.294586,241.548782 
	C275.233185,248.062988 273.839600,256.690765 268.211395,261.560791 
	C260.972015,267.824951 254.659485,266.402527 240.638794,255.101013 
	C240.968613,262.095093 242.030258,268.422546 246.137665,273.928436 
	C247.210251,275.366211 248.861130,276.791565 247.995224,278.785645 
	C246.944077,281.206238 244.526794,280.190216 242.680862,280.263672 
	C239.026016,280.409088 235.356949,280.394623 231.700790,280.257965 
	C227.471329,280.099823 226.627441,278.507782 229.147141,275.005524 
	C231.627167,271.558380 233.251663,267.803314 234.484756,263.385742 
z"/>
<path fill="currentColor" opacity="1.000000" stroke="none" 
	d="
M203.377472,81.997055 
	C209.444763,69.548935 219.844070,68.437302 232.281418,78.330566 
	C229.958740,75.613586 227.409775,73.056198 225.358521,70.147789 
	C220.459702,63.201954 221.938370,53.631180 228.449310,48.643791 
	C235.018921,43.611450 244.735519,44.714375 250.041534,51.094730 
	C254.658798,56.646885 254.643723,65.408440 249.986511,70.918755 
	C247.949570,73.328842 245.874084,75.706360 244.005188,78.369705 
	C247.723419,75.217400 251.285797,71.903320 256.523193,71.698112 
	C261.826752,71.490311 266.385620,73.071419 269.894409,77.136223 
	C275.002869,83.054199 274.650482,92.542358 269.194366,98.111778 
	C262.081818,105.372040 254.598572,104.048584 241.267334,93.172707 
	C240.262405,98.792191 242.006241,105.228882 246.273636,111.490814 
	C247.299591,112.996323 248.873932,114.450935 247.984726,116.405396 
	C247.037903,118.486542 244.831619,117.865318 243.086716,117.906517 
	C239.425262,117.992981 235.755966,118.025070 232.097382,117.884483 
	C227.469879,117.706673 226.447830,115.975464 229.133911,112.445969 
	C233.464615,106.755478 235.030518,100.317245 235.321396,92.377701 
	C233.255035,94.215401 231.674316,95.515312 230.213776,96.938568 
	C224.084717,102.911186 217.269073,104.403862 210.791306,101.133621 
	C204.138733,97.775124 201.637405,91.584549 203.377472,81.997055 
z"/>
<path fill="currentColor" opacity="1.000000" stroke="none" 
	d="
M300.140930,421.082275 
	C301.021057,419.023773 300.441925,418.260223 298.570435,418.351013 
	C293.802795,418.582184 290.952423,416.095337 290.039459,411.657349 
	C289.344360,408.278320 290.732239,405.276550 293.747803,403.576080 
	C297.705353,401.344421 301.431183,402.193817 304.665222,405.337921 
	C304.882111,405.548767 305.229309,405.625580 305.566742,405.789398 
	C307.023132,401.877350 302.857727,399.290741 303.028442,395.455841 
	C306.360352,394.255981 309.516754,394.424164 312.716492,395.332153 
	C313.886627,398.956512 308.952637,401.129456 310.905945,405.024811 
	C315.036438,402.770081 319.328461,400.495483 323.533844,404.632385 
	C325.811676,406.873108 326.815735,409.633057 325.707642,412.833221 
	C324.061859,417.586334 320.179718,418.608612 315.334503,418.463715 
	C316.141113,422.273010 316.822479,425.865356 313.964874,428.900879 
	C312.369720,430.595367 310.511414,431.327423 308.202271,431.344177 
	C302.538452,431.385254 299.853546,428.171509 300.140930,421.082275 
z"/>
<path fill="currentColor" opacity="1.000000" stroke="none" 
	d="
M35.781723,83.849976 
	C40.815201,83.116730 44.229343,84.783646 45.760303,89.499939 
	C46.960815,93.198242 45.427559,96.184647 42.506519,98.166573 
	C38.710514,100.742149 34.967243,99.934059 31.658308,96.857269 
	C31.318874,96.541641 30.841581,96.374275 30.409098,96.127159 
	C29.041719,100.117783 33.156521,102.733238 32.924629,106.577507 
	C29.601639,107.863022 26.449186,107.295631 23.163549,106.909782 
	C22.756172,102.699959 26.762156,100.024193 25.588432,95.765129 
	C21.941591,99.371239 17.847784,101.176048 13.241996,98.048927 
	C10.408937,96.125412 9.170261,93.142876 10.053762,89.744240 
	C11.436688,84.424423 15.653262,83.275665 20.623966,83.534546 
	C20.339773,81.399956 19.756166,79.595848 19.945665,77.876968 
	C20.289248,74.760460 21.730515,72.017700 24.972994,71.080368 
	C28.101540,70.175980 31.329279,70.202621 33.755280,72.876816 
	C36.345539,75.732079 36.935123,78.986465 35.060863,82.517609 
	C34.839043,82.935539 34.713036,83.404312 34.542606,83.849518 
	C34.860985,83.869720 35.179359,83.889931 35.781723,83.849976 
z"/>
<path fill="currentColor" opacity="1.000000" stroke="none" 
	d="
M314.060242,446.542328 
	C315.318939,454.535339 311.968292,461.082123 308.646210,467.523529 
	C306.552551,471.583069 303.764587,475.284515 301.016479,479.570068 
	C305.034119,480.327423 308.621979,480.056213 312.189911,479.585175 
	C314.885162,479.229370 315.202606,476.783417 315.957581,474.822418 
	C316.755798,472.749146 317.910736,471.325989 320.387360,471.860535 
	C322.727264,472.365540 322.113220,474.325745 322.308350,475.878204 
	C322.328949,476.041901 322.310791,476.210266 322.315369,476.376312 
	C322.600616,486.679993 322.198090,487.100952 312.096619,487.067657 
	C307.278259,487.051758 302.452759,487.194916 297.643555,486.977234 
	C292.857574,486.760620 291.049194,483.172913 293.650208,479.132812 
	C299.467682,470.096710 303.897095,460.619385 304.966675,449.703949 
	C305.565430,443.593597 310.191132,445.790527 314.060242,446.542328 
z"/>
<path fill="currentColor" opacity="1.000000" stroke="none" 
	d="
M40.952576,24.917629 
	C35.670746,33.170071 32.166412,41.712769 31.236675,51.172348 
	C30.865084,54.953079 29.300961,56.813766 25.171394,56.401485 
	C21.935883,56.078465 20.845619,54.974178 21.395731,51.632339 
	C22.803318,43.081444 26.151079,35.407413 31.087433,28.363445 
	C32.312344,26.615549 33.575924,24.894758 34.864136,23.102510 
	C27.171150,20.329966 23.470388,21.577435 19.584225,28.294371 
	C18.688574,29.842440 17.601488,30.389563 15.941772,30.176590 
	C14.240405,29.958273 13.833138,28.737476 13.768963,27.325233 
	C13.693502,25.664654 13.654318,23.997089 13.713771,22.336651 
	C13.952782,15.661349 14.593956,15.056826 21.376194,15.036407 
	C26.201420,15.021881 31.028065,14.974080 35.851486,15.070591 
	C38.407703,15.121739 41.186775,14.435062 42.919827,17.456181 
	C44.701439,20.561953 42.469574,22.417048 40.952576,24.917629 
z"/>
</svg>

<svg xmlns="http://www.w3.org/2000/svg" viewBox="0 0 336 496" xml:space="preserve"><path fill="currentColor" d="M106.31 404.21c7.916-6.721 17.427-6.552 23.44.162 5.57 6.22 4.946 16.344-1.36 22.055-5.987 5.423-15.485 5.23-21.292-.451-.941-.921-1.82-1.907-3.405-2.298 1.874 2.08 3.77 4.142 5.618 6.245 7.266 8.268 4.808 21.036-4.854 25.276-6.434 2.824-13.597 1.271-18.211-3.946-4.498-5.087-5.134-13.139-1.142-19.031 2.035-3.005 4.66-5.61 6.842-8.717-3.53 3.345-7.114 6.531-12.278 6.78-5.277.255-9.888-1.152-13.442-5.216-4.975-5.69-5.036-15.173-.009-20.666 4.159-4.544 9.345-5.92 15.428-4.782 5.833 1.093 8.815 6.161 13.499 9.568.006-7.564-1.806-13.896-5.98-19.618-2.668-3.658-1.741-5.307 2.878-5.483 3.989-.152 7.996-.153 11.983.032 4.63.216 5.52 1.85 2.765 5.533-4.278 5.721-5.83 12.153-4.903 20.17 1.39-1.788 2.78-3.575 4.423-5.613zM225.81 431.024c2.294-2.62 4.377-4.938 6.459-7.255-11.006 8.008-19.213 8.64-25.626 1.758-5.166-5.544-5.616-14.972-.794-20.67 3.98-4.703 9.073-6.255 15.234-5.343 6.157.911 9.178 6.212 14.038 9.533.026-7.254-1.553-13.54-5.707-19.048-1.018-1.35-2.244-2.78-1.365-4.502.898-1.757 2.865-1.416 4.487-1.438 3.832-.052 7.671-.142 11.494.043 4.595.224 5.515 1.916 2.776 5.573-4.279 5.711-5.893 12.1-4.983 19.958 1.448-1.76 2.75-3.667 4.367-5.255 6.963-6.845 16.867-6.974 23.186-.408 5.834 6.062 5.562 16.157-.595 22.083-6.417 6.177-15.942 5.702-22.683-1.161-.575-.586-.964-1.355-1.44-2.039l-.947.835c1.878 2.085 3.776 4.152 5.629 6.258 5.183 5.89 5.578 15.041.915 20.696-5.225 6.338-14.821 7.84-21.127 3.308-7.23-5.197-8.636-14.213-3.318-22.926zM92.58 94.874c-3.54 3.498-6.686 6.872-11.726 7.634-7.328 1.107-14.13-2.162-16.943-8.507-3.048-6.877-1.04-15.04 4.753-19.317 5.72-4.222 13.955-4.012 19.466.568 1.267 1.053 2.36 2.315 4.112 3.007-2.056-2.34-4.239-4.58-6.142-7.038-4.29-5.538-4.817-11.686-1.67-17.798 2.94-5.713 8.047-8.058 14.487-7.783 6.103.261 10.608 3.075 13.028 8.513 2.51 5.64 2.32 11.368-1.706 16.459-2.056 2.599-4.313 5.04-6.274 7.833 3.597-3.143 7.084-6.392 12.158-6.72 5.066-.326 9.569.958 13.168 4.7 5.242 5.448 5.697 14.665.886 20.596-4.033 4.973-9.31 6.533-15.607 5.487-6.02-1-8.944-6.464-14.006-9.727.4 7.378 1.843 13.732 6.07 19.206 1.038 1.344 2.173 2.808 1.328 4.523-.893 1.814-2.872 1.364-4.476 1.391-3.828.065-7.661.13-11.484-.018-4.578-.176-5.552-1.913-2.847-5.49 4.308-5.696 5.888-12.125 6.12-19.067-1.398-.45-1.673.892-2.695 1.548zM100.483 208.04c14.46 4.415 16.85 15.958 5.806 30.24 4.827-2.638 8.89-4.62 13.7-3.891 4.914.744 8.842 2.888 11.386 7.199 3.875 6.563 2.469 15.158-3.175 20.043-7.167 6.202-13.625 4.756-27.569-6.358.41 7.11 1.523 13.654 5.943 19.221 1.048 1.32 2.21 2.715 1.35 4.496-.931 1.933-2.9 1.25-4.459 1.285-3.995.093-8 .138-11.99-.026-3.935-.161-4.844-1.812-2.452-5.018 4.374-5.86 5.905-12.5 6.46-20.714-2.35 2.287-4.054 3.952-5.764 5.61-6.816 6.612-15.985 7.026-22.373 1.012-6.002-5.651-6.527-15.663-1.139-21.729 5.779-6.506 15.65-6.854 22.886-.807.502.42 1.003.843 1.976 1.047-5.475-5.533-9.928-11.421-8.257-19.767 1.488-7.43 8.386-12.228 17.671-11.843zM185.442 185.202c-6.606-1.1-9.947-6.312-14.936-10.542.538 7.705 1.75 14.25 6.08 19.854 1.035 1.341 2.202 2.71 1.354 4.494-.929 1.954-2.895 1.25-4.454 1.282-3.996.084-8.001.128-11.994-.036-3.953-.162-4.899-1.832-2.476-5.003 4.465-5.843 5.772-12.547 6.554-20.785-2.42 2.353-4.116 4.018-5.829 5.666-7.132 6.86-16.836 6.984-23.098.302-5.634-6.014-5.52-16.048.248-21.772 6.32-6.27 16.505-5.806 23.23 1.02.64.648.93 1.785 2.583 1.784-1.594-3.015-4.172-4.855-6.156-7.175-5.539-6.475-5.374-16.033.345-21.835 5.657-5.74 14.437-6.212 20.927-1.127 6.397 5.014 7.64 14.722 2.706 21.572-1.133 1.573-2.454 3.01-4.515 5.515 5.183-2.93 9.28-4.868 14.208-4.016 8.843 1.53 13.608 7.582 13.114 17.04-.398 7.611-6.828 13.567-14.971 13.853-.831.029-1.665-.026-2.92-.09zM234.485 263.386c.396-2.844.708-5.292 1.188-9.052-2.637 2.564-4.446 4.361-6.296 6.115-6.786 6.433-16.133 6.572-22.357.349-5.688-5.688-6.07-15.406-.837-21.36 5.61-6.384 15.47-6.908 22.497-1.23.706.571 1.118 1.698 3.02 1.342-5.816-5.251-10.447-10.816-8.96-19.04.648-3.58 2.384-6.536 5.105-8.909 6.007-5.238 14.94-4.983 20.927.57 6.683 6.197 6.05 14.941-2.38 25.935 4.736-2.288 8.73-4.382 13.498-3.71 4.95.697 8.836 2.904 11.405 7.153 3.938 6.514 2.545 15.142-3.084 20.012-7.239 6.264-13.552 4.842-27.572-6.46.33 6.994 1.391 13.322 5.499 18.827 1.072 1.438 2.723 2.864 1.857 4.858-1.05 2.42-3.468 1.404-5.314 1.478-3.655.145-7.324.13-10.98-.006-4.23-.158-5.074-1.75-2.554-5.252 2.48-3.448 4.105-7.203 5.338-11.62zM203.377 81.997c6.068-12.448 16.467-13.56 28.904-3.666-2.322-2.717-4.871-5.275-6.922-8.183-4.9-6.946-3.42-16.517 3.09-21.504 6.57-5.033 16.287-3.93 21.593 2.45 4.617 5.553 4.602 14.314-.055 19.825-2.037 2.41-4.113 4.787-5.982 7.45 3.718-3.152 7.28-6.466 12.518-6.67 5.304-.209 9.863 1.372 13.371 5.437 5.109 5.918 4.756 15.406-.7 20.976-7.112 7.26-14.595 5.937-27.927-4.94-1.005 5.62.74 12.057 5.007 18.319 1.026 1.505 2.6 2.96 1.71 4.914-.946 2.082-3.152 1.46-4.897 1.502-3.662.086-7.331.118-10.99-.023-4.627-.177-5.65-1.909-2.963-5.438 4.33-5.69 5.897-12.129 6.187-20.068-2.066 1.837-3.647 3.137-5.107 4.56-6.13 5.973-12.945 7.466-19.423 4.196-6.652-3.359-9.154-9.55-7.414-19.137zM300.14 421.082c.881-2.058.302-2.822-1.57-2.731-4.767.231-7.618-2.256-8.53-6.694-.696-3.379.692-6.38 3.708-8.08 3.957-2.233 7.683-1.383 10.917 1.76.217.212.564.289.902.452 1.456-3.912-2.71-6.498-2.539-10.333 3.332-1.2 6.489-1.032 9.688-.124 1.17 3.625-3.763 5.797-1.81 9.693 4.13-2.255 8.422-4.53 12.628-.393 2.278 2.241 3.282 5.001 2.174 8.201-1.646 4.753-5.528 5.776-10.373 5.63.806 3.81 1.487 7.402-1.37 10.438-1.595 1.694-3.454 2.426-5.763 2.443-5.664.041-8.348-3.172-8.061-10.262zM35.782 83.85c5.033-.733 8.447.934 9.978 5.65 1.2 3.698-.332 6.685-3.253 8.667-3.796 2.575-7.54 1.767-10.849-1.31-.34-.315-.816-.483-1.249-.73-1.367 3.99 2.748 6.606 2.516 10.45-3.323 1.286-6.476.719-9.761.333-.408-4.21 3.598-6.886 2.424-11.145-3.646 3.606-7.74 5.411-12.346 2.284-2.833-1.924-4.072-4.906-3.188-8.305 1.383-5.32 5.6-6.468 10.57-6.21-.284-2.134-.868-3.938-.678-5.657.343-3.117 1.785-5.86 5.027-6.797 3.129-.904 6.356-.877 8.782 1.797 2.59 2.855 3.18 6.11 1.306 9.64-.222.419-.348.887-.518 1.333.318.02.636.04 1.239 0zM314.06 446.542c1.259 7.993-2.092 14.54-5.414 20.982-2.093 4.06-4.881 7.76-7.63 12.046 4.018.757 7.606.486 11.174.015 2.695-.356 3.013-2.802 3.768-4.763.798-2.073 1.953-3.496 4.43-2.961 2.34.505 1.725 2.465 1.92 4.017.02.164.003.332.007.498.286 10.304-.117 10.725-10.218 10.692-4.819-.016-9.644.127-14.453-.09-4.786-.217-6.595-3.805-3.994-7.845 5.818-9.036 10.247-18.514 11.317-29.43.598-6.11 5.224-3.912 9.093-3.16zM40.953 24.918c-5.282 8.252-8.787 16.795-9.716 26.254-.372 3.781-1.936 5.642-6.066 5.23-3.235-.324-4.325-1.428-3.775-4.77 1.407-8.55 4.755-16.225 9.691-23.269 1.225-1.747 2.489-3.468 3.777-5.26-7.693-2.773-11.394-1.526-15.28 5.191-.895 1.548-1.983 2.096-3.642 1.883-1.702-.219-2.109-1.44-2.173-2.852-.075-1.66-.115-3.328-.055-4.988.239-6.676.88-7.28 7.662-7.3 4.825-.015 9.652-.063 14.475.034 2.557.05 5.336-.636 7.069 2.385 1.781 3.106-.45 4.961-1.967 7.462z"/></svg>
